svgs/sharp-light/location-arrow.svg

<svg xmlns="http://www.w3.org/2000/svg" viewBox="0 0 448 512"><!--! Font Awesome Pro 6.6.0 by @fontawesome - https://fontawesome.com License - https://fontawesome.com/license (Commercial License) Copyright 2024 Fonticons, Inc. --><path d="M256 224l0 32 0 175.1L377.8 102.2 48.9 224 224 224l32 0zM0 208L392.5 62.6 432 48 417.4 87.5 272 480l-16 0-32 0 0-32 0-160 0-32-32 0L32 256 0 256l0-32 0-16z"/></svg>

<svg xmlns="http://www.w3.org/2000/svg" viewBox="0 0 448 512"><!--! Font Awesome Pro 6.4.0 by @fontawesome - https://fontawesome.com License - https://fontawesome.com/license (Commercial License) Copyright 2023 Fonticons, Inc. --><path d="M256 224v32V431.1L377.8 102.2 48.9 224H224h32zM0 208L392.5 62.6 432 48 417.4 87.5 272 480H256 224V448 288 256H192 32 0V224 208z"/></svg>
